dist/intermediate-svg/receipt.svg

<?xml version="1.0" encoding="utf-8"?><svg width="9" height="13" fill="none" xmlns="http://www.w3.org/2000/svg" viewBox="0 0 9 13"><path d="M1.9419 3.17245V2.67453C1.9419 2.52515 2.04148 2.42557 2.19086 2.42557H6.67217C6.82155 2.42557 6.92113 2.52515 6.92113 2.67453V3.17245C6.92113 3.32183 6.82155 3.42141 6.67217 3.42141H2.19086C2.04148 3.42141 1.9419 3.32183 1.9419 3.17245ZM3.68463 8.40065H2.19086C2.04148 8.40065 1.9419 8.50023 1.9419 8.64961V9.14753C1.9419 9.29691 2.04148 9.39649 2.19086 9.39649H3.68463C3.83401 9.39649 3.93359 9.29691 3.93359 9.14753V8.64961C3.93359 8.50023 3.83401 8.40065 3.68463 8.40065ZM2.19086 5.41311H6.67217C6.82155 5.41311 6.92113 5.31352 6.92113 5.16415V4.66622C6.92113 4.51685 6.82155 4.41726 6.67217 4.41726H2.19086C2.04148 4.41726 1.9419 4.51685 1.9419 4.66622V5.16415C1.9419 5.31352 2.04148 5.41311 2.19086 5.41311ZM6.92113 6.65792C6.92113 6.50854 6.82155 6.40895 6.67217 6.40895H2.19086C2.04148 6.40895 1.9419 6.50854 1.9419 6.65792V7.15584C1.9419 7.30522 2.04148 7.4048 2.19086 7.4048H6.67217C6.82155 7.4048 6.92113 7.30522 6.92113 7.15584V6.65792ZM8.4149 12.384C8.31532 12.384 8.21573 12.3341 8.11614 12.2844L6.92113 11.4879L5.97508 12.2348C5.77591 12.3841 5.52694 12.3841 5.37756 12.2348L4.43151 11.4879L3.48546 12.2348C3.28629 12.3841 3.03733 12.3841 2.88795 12.2348L1.9419 11.4879L0.746885 12.2844C0.597508 12.3839 0.398339 12.3839 0.248962 12.2844C0.0995846 12.1848 0 12.0354 0 11.8363V1.37988C0 0.832164 0.448131 0.384033 0.995847 0.384033H7.96677C8.51449 0.384033 8.96262 0.832164 8.96262 1.37988V11.8363C8.96262 12.0354 8.86303 12.1848 8.71366 12.2844C8.56428 12.3839 8.51448 12.384 8.4149 12.384ZM4.43151 10.3923C4.5311 10.3923 4.63069 10.4422 4.73027 10.492L5.67632 11.2389L6.62237 10.492C6.77175 10.3426 7.02072 10.3426 7.21989 10.4422L7.91698 10.9401V1.42972H0.946051V10.9401L1.64314 10.4422C1.84231 10.3426 2.04149 10.3426 2.24065 10.492L3.18671 11.2389L4.13276 10.492C4.23234 10.4422 4.33193 10.3923 4.43151 10.3923Z" fill="#0094FF"/></svg>

<?xml version="1.0" encoding="utf-8"?><svg width="9" height="13" fill="none" xmlns="http://www.w3.org/2000/svg" viewBox="0 0 9 13"><path d="M1.942 3.172v-.497c0-.15.1-.25.249-.25h4.481c.15 0 .25.1.25.25v.497c0 .15-.1.25-.25.25H2.191c-.15 0-.25-.1-.25-.25zm1.743 5.229H2.19c-.15 0-.25.1-.25.249v.498c0 .149.1.248.25.248h1.494c.149 0 .249-.1.249-.248V8.65c0-.15-.1-.25-.25-.25zM2.19 5.413h4.481c.15 0 .25-.1.25-.249v-.498c0-.15-.1-.249-.25-.249H2.191c-.15 0-.25.1-.25.25v.497c0 .15.1.25.25.25zm4.73 1.245c0-.15-.1-.25-.249-.25H2.191c-.15 0-.25.1-.25.25v.498c0 .15.1.249.25.249h4.481c.15 0 .25-.1.25-.25v-.497zm1.494 5.726c-.1 0-.2-.05-.299-.1l-1.195-.796-.946.747c-.2.15-.448.15-.597 0l-.946-.747-.947.747c-.199.15-.448.15-.597 0l-.946-.747-1.195.796c-.15.1-.349.1-.498 0A.523.523 0 010 11.836V1.38C0 .832.448.384.996.384h6.97c.548 0 .997.448.997.996v10.456c0 .2-.1.349-.25.448-.149.1-.199.1-.298.1zm-3.983-1.992c.1 0 .199.05.298.1l.946.747.946-.747c.15-.15.399-.15.598-.05l.697.498V1.43H.947v9.51l.696-.498c.2-.1.398-.1.598.05l.946.747.946-.747c.1-.05.199-.1.299-.1z" fill="#0094FF"/></svg>
